X: 05069
T: The OMPOMPANOOSUC RIVER REEL
C: Bob McQuillen 15 Oct 80
B: Bob's Note Book 5 #69
%R: reel
Z: 2021 John Chambers <jc:trillian.mit.edu>
M: C
L: 1/8
K: Em
gf \
| e2eg agfe | dBAB G2E2 | e2eg agfe | dedB d2gf |\
| edeg agfe | dedB A2GA | Bdeg bgab | g2e2 e2 :|
|: GA \
| BAGB ABdB | ABAG E2GA | BAGB degb | aged e2gf |\
| edef g2ge | dBGB A2GA | BedB AGED | B,2E2 E2 :|
%%begintext align
%% Isn't that
%% a wonderful name? I cross this river
%% every time I go hunting in Vermont.
%%endtext

%%sep 1 1 500

%%sep 1 1 500

